client/public/img/misc/mwheelleft_icon.svg

<?xml version="1.0" encoding="UTF-8" standalone="no"?>
<svg
   width="26"
   height="26"
   viewBox="0 0 26 26"
   fill="none"
   version="1.1"
   id="svg7"
   xmlns="http://www.w3.org/2000/svg"
   xmlns:svg="http://www.w3.org/2000/svg">
  <defs
     id="defs7" />
  <path
     d="M0.43479 20.0579L1.72551 19.6484C2.04197 20.676 2.50661 21.6784 3.09669 22.5823L1.81604 23.1121C1.70842 23.1696 1.65199 23.1777 1.56183 23.0103L0.34791 20.2978C0.290494 20.1502 0.295643 20.0972 0.43479 20.0579Z"
     fill="#333333"
     id="path1" />
  <path
     d="M0.179678 15.3018H1.27121C1.25116 15.7519 1.24325 16.191 1.24325 16.5868C1.24325 17.5037 1.38529 18.4603 1.65213 19.4008L0.347818 19.5283C0.228917 19.5391 0.174671 19.5261 0.171302 19.3566L-0.000592505 15.4949C-0.00483363 15.3596 0.0242 15.3088 0.179678 15.3018Z"
     fill="#333333"
     id="path2" />
  <path
     d="M15.9208 8.8358C16.0819 9.90742 16.2524 11.0414 16.5127 12.2018H10.749V1.3623C14.8789 1.90649 15.3386 4.96385 15.9208 8.8358Z"
     fill="#333333"
     id="path3" />
  <path
     d="M10.3114 1.31573V12.2022H8.34473V1.31573C8.65325 1.28969 8.9806 1.27637 9.32808 1.27637C9.67553 1.27637 10.0029 1.28968 10.3114 1.31573Z"
     fill="#FF0000"
     id="path4" />
  <path
     d="M7.90818 1.3623V12.2018H2.14453C2.40481 11.0414 2.57531 9.90744 2.73643 8.83582C3.31859 4.96387 3.77829 1.9065 7.90818 1.3623Z"
     fill="#333333"
     id="path5" />
  <path
     d="M16.6418 12.7489C16.6328 12.7125 16.6238 12.676 16.6149 12.6396H2.0426L2.03957 12.6521C2.03428 12.6738 2.02897 12.6954 2.02361 12.7171L2.01572 12.7489C1.75648 13.7915 1.68066 15.3724 1.68066 16.5869C1.68066 20.8014 4.83649 25.9664 9.33445 25.9692C13.8324 25.9664 16.9769 20.8014 16.9769 16.5869C16.9769 15.3724 16.9011 13.7915 16.6418 12.7489Z"
     fill="#333333"
     id="path6" />
  <rect
     width="4.70683"
     height="4.81784"
     transform="matrix(-4.37114e-08 1 1 4.37114e-08 12.4971 4.42871)"
     fill="#FF0000"
     id="rect6" />
  <path
     d="M17.3145 0.96875L17.3145 12.596L25.4719 6.78238L17.3145 0.96875Z"
     fill="#FF0000"
     id="path7" />
</svg>

<svg xmlns="http://www.w3.org/2000/svg" width="26" height="26" fill="none"><path fill="#333" d="m.435 20.058 1.29-.41a11.7 11.7 0 0 0 1.372 2.934l-1.281.53c-.108.058-.164.066-.254-.102L.348 20.298c-.058-.148-.052-.2.087-.24M.18 15.302h1.09c-.02.45-.028.889-.028 1.285 0 .917.142 1.873.41 2.814l-1.305.127c-.12.011-.173-.002-.177-.171L0 15.495c-.004-.135.025-.186.18-.193m15.74-6.466c.162 1.071.332 2.205.593 3.366h-5.764V1.362c4.13.544 4.59 3.602 5.172 7.474"/><path fill="red" d="M10.311 1.316v10.886H8.345V1.316q.462-.04.983-.04.522 0 .983.04"/><path fill="#333" d="M7.908 1.362v10.84H2.145c.26-1.16.43-2.295.591-3.366.583-3.872 1.042-6.93 5.172-7.474m8.734 11.387-.027-.11H2.043l-.003.013-.016.065-.008.032c-.26 1.042-.335 2.623-.335 3.838 0 4.214 3.155 9.38 7.653 9.382 4.498-.003 7.643-5.168 7.643-9.382 0-1.215-.076-2.796-.335-3.838"/><path fill="red" d="M12.497 4.429v4.707h4.818V4.429zm4.818-3.46v11.627l8.157-5.814z"/></svg>
